!!!!SEGMENT: pl-kk--kk-i-387--008_anonim--salve-regina.krn
!!!cenid: 18xx:1422
!!!COM: Anonim
!!!COM-rismid: pe30004985
!!!CDT:
!!!CNT:
!!!OTL: Salve Regina
!!!PDT:
!!!AGN: Sacred
!!!SMS-siglum: PL-Kk
!!!SMS-shelfmark: Kk.I.387
!!!SMS-shelfwork: 008 W
!!!SMS-variant:
!!!SMS-altvar:
!!!NIFC-rismid: 1001139101
!!!URL-scan: http://repozytorium.nifc.pl/skany/pl-kk-nut--i-387
!!!ONB-nifc:
!!!key:
**kern	**text	**kern	**text	**dynam	**kern	**text	**kern	**text
*part4	*part4	*part3	*part3	*part3	*part2	*part2	*part1	*part1
*staff4	*staff4	*staff3	*staff3	*	*staff2	*staff2	*staff1	*staff1
*Ibass	*	*Itenor	*	*	*Ialto	*	*Isoprn	*
*I"Basso.	*	*I"Tenore.	*	*	*I"Alto.	*	*I"Soprano.	*
*I'B	*	*I'T	*	*	*I'A	*	*I'S	*
*clefF4	*	*clefC4	*	*	*clefC3	*	*clefC1	*
*k[b-e-]	*	*k[b-e-]	*	*	*k[b-e-]	*	*k[b-e-]	*
*B-:	*	*B-:	*	*	*B-:	*	*B-:	*
*M3/4	*	*M3/4	*	*	*M3/4	*	*M3/4	*
=1	=1	=1	=1	=1	=1	=1	=1	=1
*2\right	*	*2\right	*	*	*2\right	*	*2\right	*
!LO:TX:t=P:problem=all\right&colon; global	!	!LO:TX:t=P:problem=all\right&colon; global	!	!	!LO:TX:t=P:problem=all\right&colon; global	!	!LO:TX:t=P:problem=all\right&colon; global	!
!LO:TX:i:a:t=Offertorium.	!	!LO:TX:i:a:t=Offertorium	!	!	!LO:TX:i:a:t=Offertorium	!	!LO:TX:i:a:t=Offertorium.	!
!LO:TX:i:a:t=No 8.	!	!LO:TX:i:a:t=No 8.	!	!	!LO:TX:i:a:t=No 8	!	!LO:TX:i:a:t=No 8.	!
!LO:TX:a:t=P:problem= napis "Basso." nad pięciolinią	!	!LO:TX:a:t=P:problem= napis "Tenore." nad pięciolinią	!	!	!LO:TX:a:t=P:problem= napis "Alto." nad pięciolinią	!	!LO:TX:a:t=P:problem= napis "Soprano." nad pięciolinią	!
!LO:TX:a:t=P:problem= napis "No 8." przed kluczem	!	!LO:TX:a:t=P:problem= napis "No 8." przed kluczem	!	!	!LO:TX:a:t=P:problem= napis "No 8" przed kluczem	!	!LO:TX:a:t=P:problem= napis "No 8." przed kluczem	!
!	!	!	!	!	!	!	!	!LO:TX:t=P:problem=all\right&colon; global
4B-\	Sal-	4d\	Sal-	.	4b-\	Sal-	4ff\	Sal-
4.B-\	-ve	4.f\	-ve	.	4.b-\	-ve	4.dd\	-ve
8E-\	Re-	8g\	Re-	.	8f\	Re-	8ee-\	Re-
=2	=2	=2	=2	=2	=2	=2	=2	=2
.	.	.	.	.	.	.	8qdd/	.
8F\L	-gi-	4A\	-gi-	.	4f\	-gi-	4cc\	-gi-
8E-\J	.	.	.	.	.	.	.	.
4D\	-na,	4B-\	-na	.	4f\	-na	4b-\	-na,
4r	.	4r	.	.	4r	.	4r	.
=3	=3	=3	=3	=3	=3	=3	=3	=3
4d\	Ma-	4f\	Ma-	.	4b-\	Ma-	4b-\	Ma-
8c\	-ter	8e-\	-ter	.	8a\	-ter	8cc\	-ter
8B-\	mi-	8d\	mi-	.	8b-\	mi-	8dd\	mi-
8A\	-se-	8c\	-se-	.	8f\	-se-	8ee-\	-se-
8B-\	-ri-	8B-\	-ri-	.	8b-\	-ri-	8dd\	-ri-
=4	=4	=4	=4	=4	=4	=4	=4	=4
8.F\	-cor-	8.f\	-cor-	.	8.b-\	-cor-	8.dd\	-cor-
16F\	-di-	16f\	-di-	.	16a\	-di-	16cc\	-di-
4F\	-e,	4f\	-e	.	4a\	-e	4cc\	-e
4r	.	4r	.	.	4r	.	4r	.
!LO:LB:g=original	!	!LO:LB:g=original	!	!	!LO:LB:g=original	!	!LO:LB:g=original	!
=5	=5	=5	=5	=5	=5	=5	=5	=5
8F\L	vi-	8d\L	vi-	.	8a-X\L	vi-	8bn\L	vi-
8E-\J	.	8c\J	.	.	8g\J	.	8cc\J	.
4.E-\	-ta	4.c\	-ta	.	4.g\	-ta	4.cc\	-ta
8G\	dul-	8Bn\	dul-	.	8g\	dul-	8dd\	dul-
=6	=6	=6	=6	=6	=6	=6	=6	=6
4G\	-ce-	8Bn\L	-ce-	.	4g\	-ce-	8dd\L	-ce-
.	.	8c\J	.	.	.	.	8ee-\J	.
4C/	-do,	4c\	-do,	.	4g\	-do	4ee-\	-do.
4r	.	4r	.	.	4r	.	4r	.
=7	=7	=7	=7	=7	=7	=7	=7	=7
4r	.	2f\	et	.	2an\	et	2cc\	et
4F\	et	.	.	.	.	.	.	.
4E-\	spes	4f\	spes	.	4a\	spes	8dd\L	spes
.	.	.	.	.	.	.	8ee-\J	.
=8	=8	=8	=8	=8	=8	=8	=8	=8
2D\	no-	2B-\	no-	.	4f\	no-	2ff\	no-
.	.	.	.	.	4b-\	.	.	.
4E-\	-stra	4e-\	-stra	.	4b-\	-stra	4gg\	-stra.
=9	=9	=9	=9	=9	=9	=9	=9	=9
2.F\	sal-	2d\	sal-	.	2f\	sal-	2b-\	sal-
.	.	.	.	.	.	.	32qqcc/LLL	.
.	.	.	.	.	.	.	32qqb-/	.
.	.	.	.	.	.	.	32qqa/	.
.	.	.	.	.	.	.	32qqb-/JJJ	.
.	.	8qf/	.	.	.	.	8qdd/	.
.	.	4e-\	.	.	4a\	.	4cc\	.
=10	=10	=10	=10	=10	=10	=10	=10	=10
2BB-/	-ve	2d\	-ve,	.	2b-\	-ve,	2b-\	-ve,
4r	.	4r	.	.	4r	.	4r	.
!	!	!LO:LB:g=original	!	!	!LO:LB:g=original	!	!LO:LB:g=original	!
=11	=11	=11	=11	=11	=11	=11	=11	=11
4G\	ad	4d\	ad	.	4b-\	ad	4dd\	ad
4G\	te	4d\	te	.	4b-\	te	4dd\	te
4G\	cla-	4B-\	cla-	.	4b-\	cla-	4dd\	cla-
!LO:LB:g=original	!	!	!	!	!	!	!	!
=12	=12	=12	=12	=12	=12	=12	=12	=12
8G\L	-ma-	8B-\L	-ma-	.	8b-\L	-ma-	8dd\L	-ma-
8F#X\J	.	8c\J	.	.	8a\J	.	8ee-\J	.
2F#\	-mus,	2c\	-mus	.	2a\	-mus,	2ee-\	-mus,
=13	=13	=13	=13	=13	=13	=13	=13	=13
4F#X\	e-	4A\	e-	.	4a\	e-	4ee-\	e-
8F#\	-xu-	8d\	-xu-	.	8a\	-xu-	8dd\	-xu-
8F#\	-les	8d\	-les	.	8a\	-les	8cc\	-les
8F#\	fi-	8d\	fi-	.	8d\	fi-	8b-\	fi-
8F#\	-li	8d\	-li	.	8d\	-li	8a\	-li
=14	=14	=14	=14	=14	=14	=14	=14	=14
4G\	E-	4d\	E-	.	4d\	E-	4b-\	E-
4G\	-ve,	4B-\	-ve	.	4d\	-ve	4g\	-ve
8r	.	8r	.	.	8r	.	8r	.
8G\	ad	8B-\	ad	.	8g\	ad	8b-\	ad
!	!	!	!	!	!	!	!LO:LB:g=original	!
=15	=15	=15	=15	=15	=15	=15	=15	=15
2E-\	te	2B-\	te	.	2g\	te	2ee-\	te
8E-\	su-	8B-\	su-	.	8g\	su-	8ee-\	su-
8E-\	-spi-	8B-\	-spi-	.	8g\	-spi-	8ee-\	-spi-
!	!	!LO:LB:g=original	!	!	!LO:LB:g=original	!	!	!
=16	=16	=16	=16	=16	=16	=16	=16	=16
4E-\	-ra-	4e-\	-ra-	.	8.b-\L	-ra-	8.gg\L	-ra-
.	.	.	.	.	16a-X\Jk	.	16ff\Jk	.
2E-\	-mus	2B-\	-mus	.	2g\	-mus,	2ee-\	-mus
!LO:LB:g=original	!	!	!	!	!	!	!	!
=17	=17	=17	=17	=17	=17	=17	=17	=17
2.E-\	ge-	2.B-\	ge-	.	2.g\	ge-	2.cc#X\	ge-
=18	=18	=18	=18	=18	=18	=18	=18	=18
8E-\L	-men-	8B-\L	-men-	.	8.g\L	-men-	8cc#X\L	-men-
8D\J	.	8F#X\J	.	.	.	.	8dd\J	.
.	.	.	.	.	16an\Jk	.	.	.
4.D\	-tes	4.F#/	-tes,	.	4.a\	-tes	4.dd\	-tes
!	!	!LO:TX:b:t=P:problem=oznaczenie dynamiczne na pięciolinii przed nutą	!	!LO:DY:b:t=fo:rj	!	!	!	!
8D\	et	8d\	ge-	f	8a\	ge-	8dd\	et
=19	=19	=19	=19	=19	=19	=19	=19	=19
2E-\	flen-	2B-\	-men-	.	2g\	-men-	2gg\	flen-
8E-\	-tes	8B-\	-tes	.	8g\	-tes	8cc#X\	-tes
8E-\	et	8B-\	et	.	8g\	et	8cc#\	et
!	!	!	!	!	!	!	!LO:LB:g=original	!
=20	=20	=20	=20	=20	=20	=20	=20	=20
8E-\L	flen-	8B-/L	flen-	.	8g\L	flen-	8cc#X\L	flen-
8D\J	.	8F#X/J	.	.	8a\J	.	8dd\J	.
4D\	-tes,	4F#/	-tes	.	4a\	-tes	4dd\	-tes
8r	.	8r	.	.	8r	.	8r	.
8D\	in	8Fn/	in	.	8a\	in	8a\	in
=21	=21	=21	=21	=21	=21	=21	=21	=21
2d\	hac	2f\	hac	.	2a\	hac	2dd\	hac
8D\	la-	8d\	la-	.	8a\	la-	8ffn\	la-
8D\	-cri-	8d\	-cri-	.	8f\	-cri-	8dd\	-cri-
!	!	!LO:LB:g=original	!	!	!LO:LB:g=original	!	!	!
=22	=22	=22	=22	=22	=22	=22	=22	=22
2G\	-ma-	2d\	-ma-	.	2g\	-ma-	2b-\	-ma-
4G\	-rum	4d\	-rum	.	4g\	-rum	4b-\	-rum
!LO:LB:g=original	!	!	!	!	!	!	!	!
=23	=23	=23	=23	=23	=23	=23	=23	=23
2.A\	val-	2d\	val-	.	2f\	val-	2a\	va[l]-
.	.	4c#X\	.	.	4en\	-le,	8a\L	.
.	.	.	.	.	.	.	8g\J	.
=24	=24	=24	=24	=24	=24	=24	=24	=24
2D\	-le,	2d\	-le,	.	2d\	in	2f/	-le,
!	!	!LO:TX:b:t=P:problem=oznaczenie dynamiczne na pięciolinii przed nutą	!	!LO:DY:b:rj	!	!	!	!
4D\	in	4f\	in	f	4a\	.	8a\L	in
.	.	.	.	.	.	.	8ff\J	.
!	!	!	!	!	!	!	!LO:LB:g=original	!
=25	=25	=25	=25	=25	=25	=25	=25	=25
2D\	hac	2f\	hac	.	2a\	hac	2ff\	hac
8En\	la-	8c#X\	la-	.	8a\	la-	8een\	la-
8F\	-cri-	8d\	-cri-	.	8a\	-cri-	8dd\	-cri-
=26	=26	=26	=26	=26	=26	=26	=26	=26
2G\	-ma-	2en\	-ma-	.	2b-\	-ma-	2cc#X\	-ma-
8F\L	-rum	8A\L	-rum	.	8a\L	-rum	4dd\	-rum
8D\J	.	8d\J	.	.	8f\J	.	.	.
=27	=27	=27	=27	=27	=27	=27	=27	=27
2A\	val-	2d\	val-	.	2f\	val-	2.a\	val-
4AA/	.	4c#X\	.	.	4en\	.	.	.
!	!	!LO:LB:g=original	!	!	!	!	!	!
=28	=28	=28	=28	=28	=28	=28	=28	=28
2D\	-le	2d\	-le,	.	2d\	-le,	2.d/	-le,
4r	.	4r	.	.	4r	.	.	.
!LO:LB:g=original	!	!	!	!	!LO:LB:g=original	!	!	!
=29	=29	=29	=29	=29	=29	=29	=29	=29
2B-\	E-	4d\	E-	.	2b-\	E-	4ff\	E-
.	.	4.f\	.	.	.	.	4.dd\	.
4B-\	-ia	.	.	.	4b-\	-ia	.	.
.	.	8g\	-ia	.	.	.	8ee-\	-ia
=30	=30	=30	=30	=30	=30	=30	=30	=30
.	.	.	.	.	.	.	8qdd/	.
8F\L	er-	4A\	er-	.	4f\	er-	4cc\	er-
8E-\J	.	.	.	.	.	.	.	.
4D\	-go	4B-\	-go	.	4f\	-go	4b-\	-go,
4r	.	4r	.	.	4r	.	4r	.
!	!	!	!	!	!	!	!LO:LB:g=original	!
=31	=31	=31	=31	=31	=31	=31	=31	=31
4.d\	Ad-	4.f\	Ad-	.	4.b-\	Ad-	4.b-\	Ad-
16c\LL	-vo-	16e-\LL	-vo-	.	16a\LL	-vo-	16cc\LL	-vo-
16B-\JJ	.	16d\JJ	.	.	16b-\JJ	.	16dd\JJ	.
8A\	-ca-	8c\	-ca-	.	8f\	-ca-	8ee-\	-ca-
8B-\	-ta	8B-\	-ta	.	8b-\	-ta	8dd\	-ta
=32	=32	=32	=32	=32	=32	=32	=32	=32
4F\	no-	4f\	no-	.	4b-\	no-	4dd\	no-
4F\	-stra	4f\	-stra	.	4a\	-stra,	4cc\	-stra
4r	.	4r	.	.	4r	.	4r	.
=33	=33	=33	=33	=33	=33	=33	=33	=33
2F\	il-	2d\	il-	.	2a-X\	il-	2bn\	il-
4F\	-los	4d\	-los	.	4a-\	-los	4b\	-los
!	!	!LO:LB:g=original	!	!	!	!	!	!
=34	=34	=34	=34	=34	=34	=34	=34	=34
4E-\	tu-	4e-\	tu-	.	4g\	tu-	8cc\L	tu-
.	.	.	.	.	.	.	8ee-\J	.
!LO:LB:g=original	!	!	!	!	!	!	!	!
4.E-\	-os	4.c\	-os,	.	4.g\	-os,	4.ee-\	-os,
8E-\	mi-	8e-\	mi-	.	8g\	mi-	8cc\	mi-
!	!	!	!	!	!LO:LB:g=original	!	!	!
=35	=35	=35	=35	=35	=35	=35	=35	=35
4.E-\	-se-	4.c\	-se-	.	4.g-X\	-se-	4.a\	-se-
8E-\	-ri-	8c\	-ri-	.	8g-\	-ri-	8a\	-ri-
8E-\	-cor-	8c\	-cor-	.	8g-\	-cor-	8a\	-cor-
8E-\	-des	8c\	-des	.	8g-\	-des	8a\	-des
!	!	!	!	!	!	!	!LO:LB:g=original	!
=36	=36	=36	=36	=36	=36	=36	=36	=36
8.D/	o-	8.d\	o-	.	8.f\	o-	8.b-\	o-
16C/	-cu-	16A\	-cu-	.	16f\	-cu-	16cc\	-cu-
4BB-/	-los,	4B-\	-los	.	4f\	-los,	4dd\	-los
4r	.	4r	.	.	4r	.	4r	.
=37	=37	=37	=37	=37	=37	=37	=37	=37
4G-X\	ad	4B-\	ad	.	4b-\	ad	4dd-X\	ad
4G-\	nos	4B-\	nos	.	4b-\	nos	4dd-\	nos
4G-\	con-	4B-\	con-	.	4b-\	con-	4dd-\	con-
=38	=38	=38	=38	=38	=38	=38	=38	=38
4G-X\	-ver-	8B-\L	-ver-	.	8b-\L	-ver-	8dd-X\L	-ver-
.	.	8c\J	.	.	8a\J	.	8cc\J	.
2G-\	-te	2d-X\	-te,	.	2b-\	-te,	2b-\	-te,
!	!	!LO:LB:g=original	!	!	!	!	!	!
=39	=39	=39	=39	=39	=39	=39	=39	=39
4G-X\	ad	4d-X\	ad	.	4b-\	ad	4een\	ad
4G-\	nos	4d-\	nos	.	4b-\	nos	4ee\	nos
!	!	!	!LO:SIC:v:s=con	!	!	!	!	!
4G-\	con-	4d-\	cor-	.	4b-\	con-	4ee\	con-
!LO:LB:g=original	!	!	!	!	!	!	!	!
=40	=40	=40	=40	=40	=40	=40	=40	=40
2.F\	-ver-	4d-X\	-ver-	.	4b-\	-ver-	2.ff\	-ver-
.	.	4c\	.	.	4a\	.	.	.
.	.	8qe-/	.	.	8qcc/	.	.	.
.	.	4d-\	.	.	4b-\	.	.	.
!	!	!	!	!	!LO:LB:g=original	!	!LO:LB:g=original	!
=41	=41	=41	=41	=41	=41	=41	=41	=41
2F\	-te,	2c\	-te,	.	2a\	-te,	2f/	-te
8r	.	8r	.	.	8r	.	8r	.
8F\	et	8c\	et	.	8a\	et	8cc\	et
=42	=42	=42	=42	=42	=42	=42	=42	=42
4.F\	Je-	4.c\	Je-	.	4.a\	Je-	4.cc\	Je-
8F\	-sum	8c\	-sum	.	8a\	-sum	8ff\	-sum
8F\	be-	8A\	be-	.	8a\	be-	8een\	be-
8F\	-ne-	8d\	-ne-	.	8a\	-ne-	8dd\	-ne-
=43	=43	=43	=43	=43	=43	=43	=43	=43
4En\	-di-	8G\L	-dic-	.	4g\	-dic-	8dd\L	-dic-
.	.	8c\J	.	.	.	.	8cc\J	.
2E\	-ctum	2c\	-tum	.	2g\	-tum	2cc\	-tum
!	!	!LO:LB:g=original	!	!	!	!	!	!
=44	=44	=44	=44	=44	=44	=44	=44	=44
4.En\	fru-	4.c\	fru-	.	4.g\	fru-	4.cc\	fruc-
8E\	-ctum	8G/	-ctum	.	8g\	-ctum	8cc#X\	-tum
8E\	ven-	8G/	Ven-	.	8g\	ven-	8dd\	ven-
8E\	-tris	8c\	-tris	.	8g\	-tris	8b-\	-tris
=45	=45	=45	=45	=45	=45	=45	=45	=45
4F\	tu-	4c\	tu-	.	4f\	tu-	8a\L	tu-
.	.	.	.	.	.	.	8cc\J	.
2F\	-i,	2A\	-i	.	2f\	-i,	2cc\	-i
!LO:LB:g=original	!	!	!	!	!	!	!LO:LB:g=original	!
=46	=46	=46	=46	=46	=46	=46	=46	=46
4B-\	no-	8B-\L	no-	.	4f\	no-	4dd\	no-
.	.	8d\J	.	.	.	.	.	.
8B-\	-bis	8d\	-bis	.	8f\	-cis	8dd\	-bis
8B-\	post	8d\	post	.	8f\	post	8dd\	post
!	!	!	!	!	!LO:LB:g=original	!	!	!
8B-\	hoc	8c\	hoc	.	8g\	hoc	8een\	hoc
8B-\	e-	8c\	e-	.	8g\	e-	8ee\	e-
=47	=47	=47	=47	=47	=47	=47	=47	=47
8.A\	-xi-	8.c\	-xil-	.	8.f\	-xil-	8.ff\	-xi-
16A\	-li-	16f\	-li-	.	16f\	-li-	16cc#X\	-li-
4.B-\	-um	4.f\	-um	.	4.f\	-um	4.cc#\	-um,
8B-\	os-	8d\	o-	.	8f\	o-	8dd\	os-
=48	=48	=48	=48	=48	=48	=48	=48	=48
2c\	-ten-	2A\	-sten-	.	2.c\	-sten-	2f/	-ten-
.	.	8qc/	.	.	.	.	8qa/	.
4C/	.	4B-\	.	.	.	.	4g/	.
!	!	!LO:LB:g=original	!	!	!	!	!	!
=49	=49	=49	=49	=49	=49	=49	=49	=49
2F\	-de	2A\	-de	.	2c\	-de	2f/	-de,
8r	.	8r	.	.	8r	.	8r	.
8F\	o	8c\	o	.	8a\	o	8ff\	o
=50	=50	=50	=50	=50	=50	=50	=50	=50
4B-\	cle-	8d\L	cle-	.	4b-\	cle-	4ff\	cle-
.	.	8f\J	.	.	.	.	.	.
!	!	!	!	!	!	!	!LO:LB:g=original	!
4.B-\	-mens	4.f\	-mens	.	4.b-\	-mens	4.dd\	-mens
8E-\	o	8g\	o	.	8b-\	o	8ee-\	o
!LO:LB:g=original	!	!	!	!	!	!	!	!
=51	=51	=51	=51	=51	=51	=51	=51	=51
.	.	.	.	.	.	.	8qdd/	.
8F\L	pi-	4A\	pi-	.	4f\	pi-	4cc\	pi-
8E-\J	.	.	.	.	.	.	.	.
2D\	-ia	2B-\	-ia	.	2f\	-ia	2b-\	-a,
=52	=52	=52	=52	=52	=52	=52	=52	=52
4B-\	o	4d\	o	.	4f\	o	4b-\	o
!	!	!	!	!	!LO:LB:g=original	!	!	!
4B-\	dul-	4e-\	dul-	.	4g\	dul-	4b-\	dul-
4B-\	-cis	4f\	-cis	.	4a-X\	-cis	4b-\	-cis
=53	=53	=53	=53	=53	=53	=53	=53	=53
4E-\	Vir-	4e-\	Vir-	.	4g\	Vir-	8b-\L	Vir-
.	.	.	.	.	.	.	8gg\J	.
4E-\	-go	4B-\	-go	.	4g\	-go	8ff\L	-go
.	.	.	.	.	.	.	8ee-\J	.
4E-\	Ma-	4B-\	Ma-	.	4g\	Ma-	8dd\L	Ma-
.	.	.	.	.	.	.	8cc\J	.
=54	=54	=54	=54	=54	=54	=54	=54	=54
2.En\	-ri-	2.B-\	-ri-	.	2.g\	-ri-	2cc\	-ri-
.	.	.	.	.	.	.	8qeen/	.
.	.	.	.	.	.	.	4dd\	.
!	!	!LO:LB:g=original	!	!	!	!	!	!
=55	=55	=55	=55	=55	=55	=55	=55	=55
2F\	-a	2A\	-a,	.	2a\	-a	2cc\	-a
!	!	!	!	!	!	!	!LO:LB:g=original	!
8r	.	8r	.	.	8r	.	8r	.
8F\	o	8A\	o	.	8f\	o	8cc\	o
=56	=56	=56	=56	=56	=56	=56	=56	=56
4F\	cle-	8A\L	cle-	.	4f\	cle-	8cc\L	cle-
.	.	8B-\J	.	.	.	.	8dd\J	.
4.F\	-mens	4.B-\	-mens	.	4.f\	-mens	4.dd\	-mens
8F\	o	8Bn\	o	.	8f\	o	8dd\	o
=57	=57	=57	=57	=57	=57	=57	=57	=57
4F\	pi-	8Bn\L	pi-	.	4f\	pi-	8dd\L	pi-
.	.	8c\J	.	.	.	.	8ee-\J	.
2F\	-ia	2A\	-ia	.	2f\	-ia	2cc\	-a
!LO:LB:g=original	!	!	!	!	!	!	!	!
=58	=58	=58	=58	=58	=58	=58	=58	=58
4F\	o	4A\	o	.	4f\	o	4ff\	o
4G\	dul-	4B-X\	dul-	.	4f\	dul-	4ff\	dul-
4A\	-cis	4c\	-cis	.	4f\	-cis	4ff\	-cis
!	!	!	!	!	!LO:LB:g=original	!	!	!
=59	=59	=59	=59	=59	=59	=59	=59	=59
2B-\	Vir-	4.d\	Vir-	.	4f\	Vir-	4.ff\	Vir-
.	.	.	.	.	4b-\	.	.	.
.	.	8f\	.	.	.	.	8dd\	.
8E-\	-go	8g\	-go	.	8b-\	-go	8ee-\	-go
8E-\	Ma-	8e-\	Ma-	.	8g\	Ma-	8cc\	Ma-
!	!	!	!	!	!	!	!LO:PB:g=original	!
=60	=60	=60	=60	=60	=60	=60	=60	=60
2.F\	-ri-	2d\	-ri-	.	2.f\	-ri-	2b-\	-ri-
.	.	4A\	.	.	.	.	4cc\	.
!	!	!LO:LB:g=original	!	!	!	!	!	!
=61	=61	=61	=61	=61	=61	=61	=61	=61
2B-\	-ia	2B-\	-a	.	2f\	-a	2dd\	-a,
4B-\	o	4B-\	o	.	4b-\	o	4dd\	o
=62	=62	=62	=62	=62	=62	=62	=62	=62
2B-\	dul-	4B-\	dul-	.	4b-\	dul-	4dd\	dul-
.	.	4c\	.	.	4a\	.	4ee-\	.
4B-\	-cis	4d\	-cis	.	4a-X\	-cis	4ff\	-cis
=63	=63	=63	=63	=63	=63	=63	=63	=63
4E-\	Vir-	4e-\	Vir-	.	4g\	Vir-	4gg\	Vir-
4E-\	-go	4c\	-go	.	4g\	-go	8ff\L	.
.	.	.	.	.	.	.	8ee-\J	.
4E-\	Ma-	4e-\	Ma-	.	4g\	Ma-	8dd\	-go
.	.	.	.	.	.	.	8cc\	Ma-
=64	=64	=64	=64	=64	=64	=64	=64	=64
2.F\	-ri-	2d\	-ri-	.	2f\	-ri-	2b-\	-ri-
.	.	.	.	.	.	.	8qdd/	.
.	.	4A\	.	.	4e-\	.	4cc\	.
=65	=65	=65	=65	=65	=65	=65	=65	=65
2.BB-/	-a.	2B-\	-a.	.	2d\	-a.	2b-\	-a.
.	.	4r	.	.	4r	.	4r	.
==	==	==	==	==	==	==	==	==
*-	*-	*-	*-	*-	*-	*-	*-	*-
!!!system-decoration: [(s1,s2,s3,s4)]
!!!RDF**kern: > = above
!!!RDF**kern: < = below
!!!EED: Mateusz Mrugas
!!!EST: 2021-01-16
!!!AIN: 1 alto 1 bass 1 soprn 1 tenor
!!!ENC: Krzysztof Stępień
!!!END: 2021-01-12
